X:31
T:Road to California
M:4/4
R:reel
Q:1/2=120
L:1/8
K:D
A2|"D"D2DE FEFE|"D"DFAB A2FA|"G"d2BA GFE2|"A"CDE2 E2FE|
"D"D2DE FEFE|"D"DFAB A2FA|"G"d2BA GFE2|"A"CDE2"D"D2::
A2|"G"D2B2B4|"G"BABc dcBA|"D"F2A2ABAG|"D"FEFG ABAF|
"G"D2B2B4|"G"BABc dcBA|"D"F2D2 DEFD|"A"EDC2"D"D2:|
